source/img/sign_fb.svg

<svg xmlns="http://www.w3.org/2000/svg" width="121.89" height="252.58" viewBox="0 0 122 253"><path fill="#ffffff" d="M0 83.53h26.12V58.13c0-11.17.28-28.44 8.41-39.13C43.09 7.68 54.85 0 75.06 0c32.94 0 46.83 4.69 46.83 4.69l-6.53 38.69s-10.88-3.14-21.04-3.14c-10.16 0-19.26 3.62-19.26 13.78V83.53h41.65l-2.9 37.78H75.06v131.27H26.12V121.31H0z" /></svg>

<svg xmlns="http://www.w3.org/2000/svg" width="121.89" height="252.58" viewBox="0 0 121.89 252.58">
	<style type="text/css">
		.st0{fill:#fefefe;}
	</style>
	<path class="st0" d="M0,83.53L26.12,83.53L26.12,71.68L26.12,60.07L26.12,58.13C26.12,46.96 26.4,29.69 34.53,19C43.09,7.68 54.85,0 75.06,0C108,0 121.89,4.69 121.89,4.69L115.36,43.38C115.36,43.38 104.48,40.24 94.32,40.24C84.16,40.24 75.06,43.86 75.06,54.02L75.06,58.13L75.06,71.68L75.06,83.53L116.71,83.53L113.81,121.31L75.06,121.31L75.06,252.58L26.12,252.58L26.12,121.31L0,121.31Z"/>
</svg>
